svg/24/logo-nvidia.svg

<svg width="24" height="24" viewBox="0 0 24 24" fill="currentColor" xmlns="http://www.w3.org/2000/svg"><path d="M8.77607 8.97412V7.62187C8.90963 7.61352 9.04318 7.60518 9.17674 7.60518C12.8829 7.48831 15.312 10.7938 15.312 10.7938C15.312 10.7938 12.6909 14.4332 9.87791 14.4332C9.50228 14.4332 9.135 14.3748 8.78442 14.2579V10.1511C10.2285 10.3264 10.5206 10.9608 11.3804 12.4048L13.3086 10.7855C13.3086 10.7855 11.8979 8.94073 9.52732 8.94073C9.27691 8.93239 9.02649 8.94908 8.77607 8.97412ZM8.77607 4.5V6.52003L9.17674 6.49499C14.327 6.3197 17.6909 10.7187 17.6909 10.7187C17.6909 10.7187 13.8345 15.4098 9.81948 15.4098C9.46889 15.4098 9.12666 15.3765 8.78442 15.318V16.5701C9.06823 16.6035 9.36038 16.6285 9.64419 16.6285C13.3838 16.6285 16.0883 14.717 18.7093 12.4633C19.1434 12.8139 20.9213 13.6569 21.2886 14.0242C18.8011 16.111 12.9998 17.7888 9.71096 17.7888C9.39377 17.7888 9.09327 17.7721 8.79277 17.7387V19.5H22.9998V4.5H8.77607ZM8.77607 14.2579V15.3264C5.32031 14.7087 4.36038 11.111 4.36038 11.111C4.36038 11.111 6.02148 9.27462 8.77607 8.97412V10.1427H8.76772C7.32365 9.96745 6.18843 11.3197 6.18843 11.3197C6.18843 11.3197 6.83117 13.5985 8.77607 14.2579ZM2.64085 10.9608C2.64085 10.9608 4.68592 7.93907 8.78442 7.62187V6.52003C4.24352 6.88731 0.320312 10.727 0.320312 10.727C0.320312 10.727 2.54068 17.1544 8.77607 17.7387V16.5701C4.20178 16.0025 2.64085 10.9608 2.64085 10.9608Z"/></svg>

<svg xmlns="http://www.w3.org/2000/svg" width="24" height="24" fill="currentColor" viewBox="0 0 24 24">
  <path d="M8.776 8.974V7.622c.134-.008.267-.017.4-.017 3.707-.117 6.136 3.189 6.136 3.189s-2.621 3.64-5.434 3.64c-.376 0-.743-.06-1.094-.176V10.15c1.444.175 1.737.81 2.596 2.254l1.929-1.62S11.898 8.94 9.527 8.94c-.25-.009-.5.008-.75.033Zm0-4.474v2.02l.4-.025c5.151-.175 8.515 4.224 8.515 4.224s-3.856 4.69-7.872 4.69a6.11 6.11 0 0 1-1.035-.091v1.252c.284.034.576.058.86.058 3.74 0 6.444-1.911 9.065-4.165.434.35 2.212 1.194 2.58 1.561-2.488 2.087-8.29 3.765-11.578 3.765-.317 0-.618-.017-.918-.05V19.5H23v-15H8.776Zm0 9.758v1.068C5.32 14.71 4.36 11.111 4.36 11.111s1.661-1.836 4.416-2.137v1.169h-.008c-1.444-.176-2.58 1.177-2.58 1.177s.643 2.278 2.588 2.938ZM2.641 10.96s2.045-3.022 6.143-3.34v-1.1C4.244 6.887.32 10.727.32 10.727s2.22 6.427 8.456 7.012V16.57c-4.574-.567-6.135-5.61-6.135-5.61Z"/>
</svg>
